build/img/ok.svg

<svg width="27" height="26" viewBox="0 0 27 26" fill="none" xmlns="http://www.w3.org/2000/svg">
<path d="M13.8512 10.957C14.8668 10.957 15.6568 10.1213 15.638 9.2113C15.6568 8.3013 14.8857 7.44702 13.87 7.44702C12.892 7.44702 12.0833 8.22702 12.0833 9.19273C12.0833 10.1584 12.8732 10.957 13.8512 10.957Z" fill="currentColor"/>
<path d="M13.701 0C6.44113 0 0.5354 5.8314 0.5354 12.9999C0.5354 20.187 6.44113 25.9999 13.701 25.9999C20.9797 25.9999 26.8667 20.1685 26.8667 12.9999C26.8855 5.8314 20.9797 0 13.701 0ZM13.8891 4.9214C16.2589 4.9214 18.215 6.85282 18.1962 9.21138C18.1962 11.5885 16.2213 13.5014 13.8139 13.4642C11.4441 13.4271 9.54445 11.5142 9.54445 9.19281C9.54445 6.83425 11.4817 4.9214 13.8891 4.9214ZM18.7228 14.9499C18.7228 14.9871 18.704 15.0056 18.704 15.0428C18.6475 15.4142 18.4595 15.7114 18.1397 15.9156C17.9328 16.0456 17.7071 16.1756 17.4814 16.2871C16.9172 16.5656 16.3153 16.7885 15.6947 16.9371C15.6195 16.9556 15.6195 16.9556 15.6759 17.0113C16.0144 17.3456 16.3718 17.6985 16.7103 18.0328C17.1429 18.4599 17.5943 18.9056 18.0269 19.3328C18.6475 19.9456 18.4783 20.967 17.6883 21.3385C17.5567 21.4128 17.4062 21.4313 17.2558 21.4685C17.1805 21.4685 17.0865 21.4685 17.0112 21.4685C16.9924 21.4685 16.9736 21.4685 16.9736 21.4499C16.6727 21.4128 16.4282 21.2642 16.2025 21.0599C15.4502 20.317 14.679 19.5556 13.9267 18.8128C13.8703 18.7571 13.8703 18.7571 13.8139 18.8128C13.0427 19.5742 12.2904 20.317 11.5193 21.0785C11.3876 21.2085 11.256 21.3013 11.0867 21.3756C10.9739 21.4313 10.8422 21.4499 10.7294 21.4685C10.6541 21.4685 10.5789 21.4685 10.4849 21.4685C10.4472 21.4685 10.4284 21.4499 10.3908 21.4499C9.883 21.357 9.54445 21.0785 9.39399 20.5956C9.24352 20.1128 9.35637 19.6856 9.71373 19.3328C10.0335 19.017 10.3344 18.7199 10.6541 18.4042C11.1243 17.9399 11.5945 17.4756 12.0459 17.0299C12.1023 16.9742 12.1023 16.9742 12.0271 16.9556C12.0083 16.9556 11.9707 16.9371 11.9519 16.9371C11.1055 16.7328 10.3344 16.3985 9.60088 15.9528C9.16829 15.6742 8.9614 15.2656 9.01783 14.7642C9.11187 13.8356 10.1651 13.3342 10.9551 13.8356C11.1055 13.9285 11.2372 14.0028 11.4064 14.0771C12.2716 14.5042 13.1932 14.6899 14.1524 14.6342C14.6226 14.6156 15.0928 14.5228 15.563 14.3742C16.0144 14.2256 16.4094 14.0214 16.8232 13.7985C17.5003 13.4085 18.3842 13.7242 18.6475 14.4485C18.6852 14.5599 18.704 14.6528 18.7228 14.7642C18.7228 14.8199 18.7228 14.8756 18.7228 14.9499Z" fill="currentColor"/>
</svg>

<svg width="27" height="26" fill="none" xmlns="http://www.w3.org/2000/svg"><path d="M13.85 10.96c1.02 0 1.8-.84 1.79-1.75a1.77 1.77 0 00-1.77-1.76c-.98 0-1.79.78-1.79 1.74 0 .97.8 1.77 1.77 1.77z" fill="currentColor"/><path d="M13.7 0A13.1 13.1 0 00.54 13c0 7.19 5.9 13 13.16 13 7.28 0 13.17-5.83 13.17-13 .02-7.17-5.89-13-13.17-13zm.19 4.92a4.3 4.3 0 014.3 4.3 4.29 4.29 0 01-4.38 4.24A4.31 4.31 0 019.54 9.2a4.3 4.3 0 014.35-4.27zm4.83 10.03l-.02.1c-.05.36-.24.66-.56.87a7.52 7.52 0 01-2.45 1.02c-.07.02-.07.02-.01.07l1.03 1.02 1.32 1.3c.62.62.45 1.64-.34 2-.13.08-.28.1-.43.14H17c-.02 0-.04 0-.04-.02a1.4 1.4 0 01-.77-.39l-2.27-2.25c-.06-.05-.06-.05-.12 0l-2.3 2.27c-.12.13-.25.22-.42.3-.12.05-.25.07-.36.09h-.25l-.09-.02c-.5-.1-.85-.37-1-.85-.15-.49-.03-.91.32-1.27l.94-.93 1.4-1.37c.05-.06.05-.06-.02-.07l-.08-.02a8.18 8.18 0 01-2.35-.99 1.19 1.19 0 01-.58-1.19c.1-.92 1.15-1.43 1.94-.92l.45.24a5.41 5.41 0 004.15.3 7.7 7.7 0 001.26-.58 1.27 1.27 0 011.9.96v.19z" fill="currentColor"/></svg>
